X: 1
T: Newmarket, The
M: 2/4
L: 1/8
R: polka
K: Amaj
|:e2c2 | BE A>c | BE AB | cB Bc |  
e2c2 | BE A>c | BE AB | cA Ac :|
|:ef/2g/2 a2 | gf f>e | ce fg | fe e2 |
ef/2g/2 a2 | gf f>e | ce fg | a2 a2 :|
